src/svg/11-flags/flag-za.svg

<svg xmlns="http://www.w3.org/2000/svg" width="640" height="480"><g fill="none" fill-rule="evenodd"><path fill="#002395" d="M0 480h640V0H0v480z"/><path fill="#DE3831" d="M0 0v240h640V0H0z"/><path fill="#FFF" d="M360 160h280v160H360z"/><path fill="#000" d="M0 0l360 240L0 480"/><path fill="#FFF" d="M0 480l360-240L0 0h144.24l360 240-360 240H0z"/><path fill="#FFB612" d="M0 0v96.16L215.76 240 0 383.84V480l360-240L0 0z"/><path fill="#007A4D" d="M0 480v-57.68L273.44 240 0 57.68V0h86.56l288 192h265.22v96H374.56l-288 192H0z"/></g></svg>

<?xml version="1.0" encoding="UTF-8" standalone="no"?>
<svg width="640px" height="480px" viewBox="0 0 640 480" version="1.1" xmlns="http://www.w3.org/2000/svg" xmlns:xlink="http://www.w3.org/1999/xlink">
    <g stroke="none" stroke-width="1" fill="none" fill-rule="evenodd">
        <path d="M0,480 L640,480 L640,0 L0,0 L0,480 Z" fill="#002395"></path>
        <path d="M0,0 L0,240 L640,240 L640,0 L0,0 L0,0 Z" fill="#DE3831"></path>
        <rect fill="#FFFFFF" x="360" y="160" width="280" height="160"></rect>
        <path d="M0,0 L360,240 L0,480" fill="#000000"></path>
        <path d="M0,480 L360,240 L0,0 L144.24,0 L504.24,240 L144.24,480 L0,480 Z" fill="#FFFFFF"></path>
        <path d="M0,0 L0,96.16 L215.76,240 L0,383.84 L0,480 L360,240 L0,0 Z" fill="#FFB612"></path>
        <path d="M0,480 L0,422.32 L273.44,240 L0,57.68 L0,0 L86.56,0 L374.56,192 L639.778931,192 L639.778931,288 L374.56,288 L86.56,480 L0,480 Z" fill="#007A4D"></path>
    </g>
</svg>
